X: 35637
T: Sailing Into Walpole's Marsh
R: reel
M: 4/4
K: Adorian
A3G A2cA|GE~E2 GED2|A3G ABcd|eBdB BAdB|
AG~G2 AG~G2|GEDE GED2|A2AG ABcd|eBdB BAA2:|
|:eg~g2 ea~a2|gedB cAA2|eg~g2 ea~a2|age^c d2ef|
~g3e ~a3f|gedB cAAB|c2gc acgc|egge d4:|

